X:1
T:Esmeralda
C:Trad.
O:Schotland
Z:Bart Vanhaverbeke 
L:1/8
M:C
K:G
G2 G>A BGBd | g2 g>g gdBG | c2 e>c BdBG | B2 d>d dcBA | 
G2 G>A BGBd | g2 g>g gdBG | c2 e>c BdBG | A2 G>F G4 ||
a2 a>a af d2 | g2 b>a ge d2 | g2 g2 f2 g>f | egfe dcBA |
G2 G>A BGBd | g2 g>g gdBG | c2 e>c BdBG | A2 G>F G4 ||
